X:2694
T:Carr\'ee de Vouvray
R:Bourr\'ee
O:France
M:C
C:Gilles Chabenat
K:Em
D>E FGA4|G>A _BG A>G FE|D>E FGA4|G>A GFE4:|\
|:d>F GA c>=B AG|FE FG A/2G/2A/2B/2 A2|\
d>F GA c>B AG|Fd FED4:|


